fill/svg/folder-add.svg

<svg xmlns="http://www.w3.org/2000/svg" viewBox="0 0 24 24"><g data-name="Layer 2"><g data-name="folder-add"><rect width="24" height="24" opacity="0"/><path d="M19.5 7.05h-7L9.87 3.87a1 1 0 0 0-.77-.37H4.5A2.47 2.47 0 0 0 2 5.93v12.14a2.47 2.47 0 0 0 2.5 2.43h15a2.47 2.47 0 0 0 2.5-2.43V9.48a2.47 2.47 0 0 0-2.5-2.43zM14 15h-1v1a1 1 0 0 1-2 0v-1h-1a1 1 0 0 1 0-2h1v-1a1 1 0 0 1 2 0v1h1a1 1 0 0 1 0 2z"/></g></g></svg>

<svg xmlns="http://www.w3.org/2000/svg" viewBox="0 0 24 24"><defs><style>.cls-1{fill:#fff;opacity:0;}.cls-2{fill:#231f20;}</style></defs><title>folder-add</title><g id="Layer_2" data-name="Layer 2"><g id="folder-add"><g id="folder-add-2" data-name="folder-add"><rect class="cls-1" width="24" height="24"/><path class="cls-2" d="M19.5,7.05h-7L9.87,3.87A1,1,0,0,0,9.1,3.5H4.5A2.47,2.47,0,0,0,2,5.93V18.07A2.47,2.47,0,0,0,4.5,20.5h15A2.47,2.47,0,0,0,22,18.07V9.48A2.47,2.47,0,0,0,19.5,7.05ZM14,15H13v1a1,1,0,0,1-2,0V15H10a1,1,0,0,1,0-2h1V12a1,1,0,0,1,2,0v1h1a1,1,0,0,1,0,2Z"/></g></g></g></svg>
